{
 "type": "map",
 "version": "1.10",
 "orientation": "orthogonal",
 "renderorder": "right-down",
 "width": 96,
 "height": 18,
 "tilewidth": 40,
 "tileheight": 40,
 "infinite": false,
 "tilesets": [],
 "nextobjectid": 12,
 "nextlayerid": 7,
 "layers": [
  {
   "id": 1,
   "name": "sky",
   "type": "imagelayer",
   "image": "../textures/sky.png",
   "opacity": 1,
   "visible": true,
   "x": 0,
   "y": 0,
   "offsetx": 0,
   "offsety": 0,
   "parallaxx": 0,
   "parallaxy": 1,
   "repeatx": true
  },
  {
   "id": 2,
   "name": "hills",
   "type": "imagelayer",
   "image": "../textures/hills.png",
   "opacity": 1,
   "visible": true,
   "x": 0,
   "y": 0,
   "offsetx": 0,
   "offsety": 0,
   "parallaxx": 0.25,
   "parallaxy": 1,
   "repeatx": true
  },
  {
   "id": 3,
   "name": "jungle",
   "type": "imagelayer",
   "image": "../textures/jungle.png",
   "opacity": 1,
   "visible": true,
   "x": 0,
   "y": 0,
   "offsetx": 0,
   "offsety": 0,
   "parallaxx": 0.55,
   "parallaxy": 1,
   "repeatx": true
  },
  {
   "id": 4,
   "name": "ground art",
   "type": "imagelayer",
   "image": "../textures/level1.png",
   "opacity": 1,
   "visible": true,
   "x": 0,
   "y": 0,
   "offsetx": 0,
   "offsety": 0,
   "parallaxx": 1,
   "parallaxy": 1,
   "repeatx": false
  },
  {
   "id": 5,
   "name": "ground",
   "type": "objectgroup",
   "objects": [
    {
     "id": 1,
     "name": "",
     "type": "ground",
     "x": 0,
     "y": 0,
     "rotation": 0,
     "visible": true,
     "width": 0,
     "height": 0,
     "polyline": [
      {
       "x": 0,
       "y": 0
      },
      {
       "x": 0,
       "y": 560
      },
      {
       "x": 480,
       "y": 560
      },
      {
       "x": 760,
       "y": 460
      },
      {
       "x": 900,
       "y": 440
      },
      {
       "x": 1040,
       "y": 470
      },
      {
       "x": 1240,
       "y": 560
      },
      {
       "x": 1700,
       "y": 560
      },
      {
       "x": 1700,
       "y": 536
      },
      {
       "x": 2000,
       "y": 536
      },
      {
       "x": 2000,
       "y": 720
      }
     ]
    },
    {
     "id": 2,
     "name": "",
     "type": "ground",
     "x": 2420,
     "y": 720,
     "rotation": 0,
     "visible": true,
     "width": 0,
     "height": 0,
     "polyline": [
      {
       "x": 0,
       "y": 0
      },
      {
       "x": 0,
       "y": -140
      },
      {
       "x": 180,
       "y": -140
      },
      {
       "x": 440,
       "y": -220
      },
      {
       "x": 780,
       "y": -220
      },
      {
       "x": 1080,
       "y": -170
      },
      {
       "x": 1420,
       "y": -170
      },
      {
       "x": 1420,
       "y": -720
      }
     ]
    },
    {
     "id": 3,
     "name": "",
     "type": "platform",
     "x": 1180,
     "y": 390,
     "rotation": 0,
     "visible": true,
     "width": 0,
     "height": 0,
     "polyline": [
      {
       "x": 0,
       "y": 0
      },
      {
       "x": 180,
       "y": 0
      }
     ]
    },
    {
     "id": 4,
     "name": "",
     "type": "platform",
     "x": 2660,
     "y": 380,
     "rotation": 0,
     "visible": true,
     "width": 0,
     "height": 0,
     "polyline": [
      {
       "x": 0,
       "y": 0
      },
      {
       "x": 160,
       "y": 0
      }
     ]
    }
   ],
   "opacity": 1,
   "visible": true,
   "x": 0,
   "y": 0
  },
  {
   "id": 6,
   "name": "markers",
   "type": "objectgroup",
   "objects": [
    {
     "id": 5,
     "name": "spawn",
     "type": "spawn",
     "x": 120,
     "y": 560,
     "point": true,
     "rotation": 0,
     "visible": true,
     "width": 0,
     "height": 0
    },
    {
     "id": 6,
     "name": "goal",
     "type": "goal",
     "x": 3720,
     "y": 550,
     "point": true,
     "rotation": 0,
     "visible": true,
     "width": 0,
     "height": 0
    },
    {
     "id": 7,
     "name": "vine",
     "type": "vine",
     "x": 2130,
     "y": 60,
     "point": true,
     "rotation": 0,
     "visible": true,
     "width": 0,
     "height": 0,
     "properties": [
      {
       "name": "length",
       "type": "float",
       "value": 320
      }
     ]
    },
    {
     "id": 8,
     "name": "gnawble",
     "type": "gnawble",
     "x": 380,
     "y": 560,
     "point": true,
     "rotation": 0,
     "visible": true,
     "width": 0,
     "height": 0
    },
    {
     "id": 9,
     "name": "gnawble",
     "type": "gnawble",
     "x": 1500,
     "y": 560,
     "point": true,
     "rotation": 0,
     "visible": true,
     "width": 0,
     "height": 0
    },
    {
     "id": 10,
     "name": "gnawble",
     "type": "gnawble",
     "x": 3020,
     "y": 500,
     "point": true,
     "rotation": 0,
     "visible": true,
     "width": 0,
     "height": 0
    },
    {
     "id": 13,
     "name": "checkpoint",
     "type": "checkpoint",
     "x": 1880,
     "y": 536,
     "point": true,
     "rotation": 0,
     "visible": true,
     "width": 0,
     "height": 0
    }
   ],
   "opacity": 1,
   "visible": true,
   "x": 0,
   "y": 0
  }
 ]
}