{
 "type": "map",
 "version": "1.10",
 "tiledversion": "1.12.2",
 "orientation": "orthogonal",
 "renderorder": "right-down",
 "infinite": false,
 "compressionlevel": -1,
 "width": 26,
 "height": 18,
 "tilewidth": 16,
 "tileheight": 16,
 "nextlayerid": 5,
 "nextobjectid": 2,
 "layers": [
  {
   "id": 1,
   "name": "ground",
   "type": "tilelayer",
   "x": 0,
   "y": 0,
   "width": 26,
   "height": 18,
   "opacity": 1,
   "visible": true,
   "data": [
    68, 68, 68, 68, 68, 68, 68, 68, 68, 68, 68, 68, 68, 68, 68, 68, 68, 68, 68, 68, 68, 68, 68, 68, 68, 68,
    68, 1, 1, 1, 1, 1, 1, 1, 1, 70, 70, 70, 70, 70, 70, 70, 70, 1, 1, 1, 1, 1, 1, 1, 1, 68,
    68, 1, 46, 22, 22, 22, 28, 1, 1, 70, 70, 70, 70, 70, 70, 70, 70, 1, 1, 1, 1, 1, 1, 1, 1, 68,
    68, 1, 43, 19, 19, 19, 25, 1, 1, 71, 72, 71, 71, 72, 71, 71, 71, 1, 74, 74, 74, 74, 74, 74, 1, 68,
    68, 1, 43, 19, 19, 19, 25, 1, 1, 71, 71, 71, 73, 71, 71, 71, 71, 1, 1, 1, 1, 1, 1, 1, 1, 68,
    68, 1, 55, 31, 31, 31, 37, 1, 1, 1, 1, 1, 12, 6, 1, 1, 1, 1, 1, 1, 1, 1, 1, 1, 75, 68,
    68, 1, 1, 1, 1, 1, 1, 1, 1, 1, 1, 1, 11, 5, 1, 1, 75, 1, 1, 1, 1, 1, 1, 1, 1, 68,
    68, 1, 1, 1, 1, 1, 1, 1, 1, 1, 75, 1, 11, 5, 1, 1, 1, 1, 1, 1, 1, 1, 1, 1, 1, 68,
    68, 12, 4, 8, 4, 4, 4, 4, 4, 4, 4, 4, 3, 3, 4, 4, 4, 4, 4, 4, 4, 4, 4, 4, 4, 6,
    68, 15, 9, 75, 15, 7, 7, 7, 7, 7, 7, 7, 3, 3, 7, 7, 7, 7, 7, 7, 7, 7, 7, 7, 7, 9,
    68, 1, 1, 1, 1, 1, 1, 1, 1, 1, 1, 1, 11, 5, 1, 1, 1, 1, 1, 1, 1, 1, 1, 1, 1, 68,
    68, 1, 1, 70, 70, 70, 70, 70, 70, 1, 1, 1, 11, 5, 1, 1, 1, 70, 70, 70, 70, 70, 70, 1, 1, 68,
    68, 1, 1, 70, 70, 70, 70, 70, 70, 1, 1, 1, 11, 5, 1, 1, 1, 70, 70, 70, 70, 70, 70, 1, 1, 68,
    68, 1, 1, 71, 72, 71, 71, 72, 71, 1, 1, 1, 11, 5, 1, 1, 1, 71, 72, 71, 71, 72, 71, 1, 1, 68,
    68, 1, 1, 71, 71, 73, 71, 71, 71, 1, 1, 1, 15, 9, 1, 1, 1, 71, 71, 73, 71, 71, 71, 1, 1, 68,
    68, 1, 1, 1, 1, 1, 1, 1, 1, 1, 1, 1, 1, 1, 1, 1, 1, 1, 1, 1, 1, 1, 1, 1, 1, 68,
    68, 1, 1, 1, 1, 1, 1, 1, 1, 1, 1, 1, 1, 1, 1, 1, 1, 1, 1, 1, 1, 1, 1, 1, 1, 68,
    68, 68, 68, 68, 68, 68, 68, 68, 68, 68, 68, 68, 68, 68, 68, 68, 68, 68, 68, 68, 68, 68, 68, 68, 68, 68
   ]
  },
  {
   "id": 4,
   "name": "objects",
   "type": "objectgroup",
   "x": 0,
   "y": 0,
   "opacity": 1,
   "visible": true,
   "draworder": "topdown",
   "objects": [
    {
     "id": 1,
     "name": "east",
     "type": "exit",
     "x": 400,
     "y": 128,
     "width": 16,
     "height": 32,
     "rotation": 0,
     "visible": true,
     "properties": [
      {
       "name": "to",
       "type": "string",
       "value": "field"
      },
      {
       "name": "arrive",
       "type": "string",
       "value": "west"
      }
     ]
    }
   ]
  }
 ],
 "tilesets": [
  {
   "firstgid": 1,
   "source": "aldane.tsj"
  }
 ],
 "properties": [
  {
   "name": "outside",
   "type": "string",
   "value": "tree"
  }
 ]
}
