{
 "type": "map",
 "version": "1.10",
 "orientation": "orthogonal",
 "renderorder": "right-down",
 "width": 136,
 "height": 18,
 "tilewidth": 40,
 "tileheight": 40,
 "infinite": false,
 "tilesets": [],
 "nextobjectid": 37,
 "nextlayerid": 7,
 "layers": [
  {
   "id": 1,
   "name": "sky",
   "type": "imagelayer",
   "image": "../textures/sky.png",
   "opacity": 1,
   "visible": true,
   "x": 0,
   "y": 0,
   "offsetx": 0,
   "offsety": 0,
   "parallaxx": 0,
   "parallaxy": 1,
   "repeatx": true
  },
  {
   "id": 2,
   "name": "skyline",
   "type": "imagelayer",
   "image": "../textures/skyline.png",
   "opacity": 1,
   "visible": true,
   "x": 0,
   "y": 0,
   "offsetx": 0,
   "offsety": 0,
   "parallaxx": 0.25,
   "parallaxy": 1,
   "repeatx": true
  },
  {
   "id": 3,
   "name": "ruins",
   "type": "imagelayer",
   "image": "../textures/ruins.png",
   "opacity": 1,
   "visible": true,
   "x": 0,
   "y": 0,
   "offsetx": 0,
   "offsety": 0,
   "parallaxx": 0.55,
   "parallaxy": 1,
   "repeatx": true
  },
  {
   "id": 4,
   "name": "ground art",
   "type": "imagelayer",
   "image": "../textures/level1.png",
   "opacity": 1,
   "visible": true,
   "x": 0,
   "y": 0,
   "offsetx": 0,
   "offsety": 0,
   "parallaxx": 1,
   "parallaxy": 1,
   "repeatx": false
  },
  {
   "id": 5,
   "name": "ground",
   "type": "objectgroup",
   "objects": [
    {
     "id": 1,
     "name": "",
     "type": "ground",
     "x": 0,
     "y": 0,
     "rotation": 0,
     "visible": true,
     "width": 0,
     "height": 0,
     "polyline": [
      {"x": 0, "y": 0},
      {"x": 0, "y": 560},
      {"x": 15.0, "y": 560.0},
      {"x": 30.0, "y": 560.0},
      {"x": 45.0, "y": 560.0},
      {"x": 60.0, "y": 560.0},
      {"x": 75.0, "y": 560.0},
      {"x": 90.0, "y": 560.0},
      {"x": 105.0, "y": 560.0},
      {"x": 120.0, "y": 560.0},
      {"x": 136.0, "y": 560.0},
      {"x": 152.0, "y": 560.0},
      {"x": 168.0, "y": 560.0},
      {"x": 184.0, "y": 560.0},
      {"x": 200.0, "y": 560.0},
      {"x": 216.0, "y": 560.0},
      {"x": 232.0, "y": 560.0},
      {"x": 248.0, "y": 560.0},
      {"x": 264.0, "y": 560.0},
      {"x": 280.0, "y": 560.0},
      {"x": 294.0, "y": 560.7280000000001},
      {"x": 308.0, "y": 562.4639999999999},
      {"x": 322.0, "y": 564.5360000000001},
      {"x": 336.0, "y": 566.2719999999999},
      {"x": 350.0, "y": 567.0},
      {"x": 365.7143, "y": 566.8111},
      {"x": 381.4286, "y": 566.2752},
      {"x": 397.1429, "y": 565.4382},
      {"x": 412.8571, "y": 564.3461},
      {"x": 428.5714, "y": 563.0451},
      {"x": 444.2857, "y": 561.581},
      {"x": 460.0, "y": 560.0},
      {"x": 474.5455, "y": 558.1106},
      {"x": 489.0909, "y": 555.5126},
      {"x": 503.6364, "y": 552.3016},
      {"x": 518.1818, "y": 548.5731000000001},
      {"x": 532.7273, "y": 544.4224},
      {"x": 547.2727, "y": 539.9451},
      {"x": 561.8182, "y": 535.2366},
      {"x": 576.3636, "y": 530.3923},
      {"x": 590.9091, "y": 525.5079000000001},
      {"x": 605.4545, "y": 520.6786},
      {"x": 620.0, "y": 516.0},
      {"x": 633.8462, "y": 511.3351},
      {"x": 647.6923, "y": 506.12940000000003},
      {"x": 661.5385, "y": 500.5117},
      {"x": 675.3846, "y": 494.61080000000004},
      {"x": 689.2308, "y": 488.55539999999996},
      {"x": 703.0769, "y": 482.47429999999997},
      {"x": 716.9231, "y": 476.4961},
      {"x": 730.7692, "y": 470.74969999999996},
      {"x": 744.6154, "y": 465.36379999999997},
      {"x": 758.4615, "y": 460.4671},
      {"x": 772.3077, "y": 456.1884},
      {"x": 786.1538, "y": 452.6565},
      {"x": 800.0, "y": 450.0},
      {"x": 814.2857, "y": 447.7968},
      {"x": 828.5714, "y": 445.7268},
      {"x": 842.8571, "y": 443.8651},
      {"x": 857.1429, "y": 442.2865},
      {"x": 871.4286, "y": 441.0662},
      {"x": 885.7143, "y": 440.2791},
      {"x": 900.0, "y": 440.0},
      {"x": 915.0, "y": 440.8065},
      {"x": 930.0, "y": 443.042},
      {"x": 945.0, "y": 446.4303},
      {"x": 960.0, "y": 450.6953},
      {"x": 975.0, "y": 455.5609},
      {"x": 990.0, "y": 460.7509},
      {"x": 1005.0, "y": 465.98929999999996},
      {"x": 1020.0, "y": 471.0},
      {"x": 1034.0, "y": 475.91470000000004},
      {"x": 1048.0, "y": 481.5618},
      {"x": 1062.0, "y": 487.7486},
      {"x": 1076.0, "y": 494.2827},
      {"x": 1090.0, "y": 500.9715},
      {"x": 1104.0, "y": 507.6227},
      {"x": 1118.0, "y": 514.0436},
      {"x": 1132.0, "y": 520.0418},
      {"x": 1146.0, "y": 525.4248},
      {"x": 1160.0, "y": 530.0},
      {"x": 1175.0, "y": 534.3556},
      {"x": 1190.0, "y": 538.5738},
      {"x": 1205.0, "y": 542.5831000000001},
      {"x": 1220.0, "y": 546.3123},
      {"x": 1235.0, "y": 549.69},
      {"x": 1250.0, "y": 552.6447000000001},
      {"x": 1265.0, "y": 555.1052},
      {"x": 1280.0, "y": 557.0},
      {"x": 1294.4444, "y": 558.5171},
      {"x": 1308.8889, "y": 559.9862},
      {"x": 1323.3333, "y": 561.3725},
      {"x": 1337.7778, "y": 562.6412},
      {"x": 1352.2222, "y": 563.7574},
      {"x": 1366.6667, "y": 564.6863},
      {"x": 1381.1111, "y": 565.3929},
      {"x": 1395.5556, "y": 565.8424},
      {"x": 1410.0, "y": 566.0},
      {"x": 1424.4444, "y": 565.6571},
      {"x": 1438.8889, "y": 564.738},
      {"x": 1453.3333, "y": 563.4074},
      {"x": 1467.7778, "y": 561.8299},
      {"x": 1482.2222, "y": 560.1701},
      {"x": 1496.6667, "y": 558.5926},
      {"x": 1511.1111, "y": 557.262},
      {"x": 1525.5556, "y": 556.3429},
      {"x": 1540.0, "y": 556.0},
      {"x": 1555.0, "y": 556.5926},
      {"x": 1570.0, "y": 558.0741},
      {"x": 1585.0, "y": 560.0},
      {"x": 1600.0, "y": 561.9259},
      {"x": 1615.0, "y": 563.4074},
      {"x": 1630.0, "y": 564.0},
      {"x": 1645.3333, "y": 563.4815},
      {"x": 1660.6667, "y": 562.5185},
      {"x": 1676.0, "y": 562.0},
      {"x": 1680.2656, "y": 561.7812},
      {"x": 1683.875, "y": 561.0},
      {"x": 1686.5469, "y": 559.4688},
      {"x": 1688.0, "y": 557.0},
      {"x": 1688.7917, "y": 550.8426},
      {"x": 1689.3333, "y": 543.7407000000001},
      {"x": 1689.875, "y": 536.25},
      {"x": 1690.6667, "y": 528.9259},
      {"x": 1691.9583, "y": 522.3241},
      {"x": 1694.0, "y": 517.0},
      {"x": 1696.3241, "y": 513.9769},
      {"x": 1699.2593, "y": 511.8148},
      {"x": 1702.75, "y": 510.375},
      {"x": 1706.7407, "y": 509.5185},
      {"x": 1711.1759, "y": 509.1065},
      {"x": 1716.0, "y": 509.0},
      {"x": 1730.0, "y": 509.1764},
      {"x": 1744.0, "y": 509.6533},
      {"x": 1758.0, "y": 510.3524},
      {"x": 1772.0, "y": 511.19550000000004},
      {"x": 1786.0, "y": 512.1041},
      {"x": 1800.0, "y": 513.0},
      {"x": 1813.3333, "y": 513.9167},
      {"x": 1826.6667, "y": 514.9927},
      {"x": 1840.0, "y": 516.1834},
      {"x": 1853.3333, "y": 517.4445000000001},
      {"x": 1866.6667, "y": 518.7315},
      {"x": 1880.0, "y": 520.0},
      {"x": 1895.0, "y": 521.3734},
      {"x": 1910.0, "y": 522.7625},
      {"x": 1925.0, "y": 524.2703},
      {"x": 1940.0, "y": 526.0},
      {"x": 1955.0, "y": 528.6172},
      {"x": 1970.0, "y": 531.9375},
      {"x": 1985.0, "y": 534.7891},
      {"x": 2000.0, "y": 536.0},
      {"x": 2002.8455, "y": 545.7886},
      {"x": 2004.6414, "y": 555.9009},
      {"x": 2005.5627, "y": 566.3848},
      {"x": 2005.7843, "y": 577.2886},
      {"x": 2005.481, "y": 588.6603},
      {"x": 2004.828, "y": 600.5481},
      {"x": 2004.0, "y": 613.0},
      {"x": 2003.172, "y": 626.0641},
      {"x": 2002.519, "y": 639.7886},
      {"x": 2002.2157, "y": 654.2216},
      {"x": 2002.4373, "y": 669.4111},
      {"x": 2003.3586, "y": 685.4052},
      {"x": 2005.1545, "y": 702.2522},
      {"x": 2008.0, "y": 720.0}
     ]
    },
    {
     "id": 2,
     "name": "",
     "type": "ground",
     "x": 2410.0,
     "y": 720.0,
     "rotation": 0,
     "visible": true,
     "width": 0,
     "height": 0,
     "polyline": [
      {"x": 0.0, "y": -0.0},
      {"x": -4.590499999999793, "y": -17.0804},
      {"x": -7.567199999999957, "y": -33.8497},
      {"x": -9.101400000000012, "y": -50.1458},
      {"x": -9.364399999999932, "y": -65.8062},
      {"x": -8.527399999999943, "y": -80.6687},
      {"x": -6.761800000000221, "y": -94.571},
      {"x": -4.2388999999998305, "y": -107.3509},
      {"x": -1.1300000000001091, "y": -118.846},
      {"x": 2.3937000000000808, "y": -128.8941},
      {"x": 6.160800000000108, "y": -137.3328},
      {"x": 10.0, "y": -144.0},
      {"x": 25.0, "y": -145.0938},
      {"x": 40.0, "y": -147.5},
      {"x": 55.0, "y": -149.9062},
      {"x": 70.0, "y": -151.0},
      {"x": 85.0, "y": -150.5556},
      {"x": 100.0, "y": -149.4444},
      {"x": 115.0, "y": -148.0},
      {"x": 130.0, "y": -146.5556},
      {"x": 145.0, "y": -145.4444},
      {"x": 160.0, "y": -145.0},
      {"x": 173.33329999999978, "y": -146.162},
      {"x": 186.66670000000022, "y": -149.3448},
      {"x": 200.0, "y": -154.0936},
      {"x": 213.33329999999978, "y": -159.9534},
      {"x": 226.66670000000022, "y": -166.4696},
      {"x": 240.0, "y": -173.1871},
      {"x": 253.33329999999978, "y": -179.6513},
      {"x": 266.6667000000002, "y": -185.4072},
      {"x": 280.0, "y": -190.0},
      {"x": 294.0, "y": -194.1183},
      {"x": 308.0, "y": -198.3053},
      {"x": 322.0, "y": -202.467},
      {"x": 336.0, "y": -206.5096},
      {"x": 350.0, "y": -210.3389},
      {"x": 364.0, "y": -213.8612},
      {"x": 378.0, "y": -216.9824},
      {"x": 392.0, "y": -219.6085},
      {"x": 406.0, "y": -221.6457},
      {"x": 420.0, "y": -223.0},
      {"x": 435.4544999999998, "y": -224.0585},
      {"x": 450.90909999999985, "y": -225.0607},
      {"x": 466.36360000000013, "y": -225.9972},
      {"x": 481.81820000000016, "y": -226.8587},
      {"x": 497.2727, "y": -227.6358},
      {"x": 512.7273, "y": -228.3191},
      {"x": 528.1817999999998, "y": -228.8992},
      {"x": 543.6363999999999, "y": -229.3667},
      {"x": 559.0909000000001, "y": -229.7123},
      {"x": 574.5455000000002, "y": -229.9265},
      {"x": 590.0, "y": -230.0},
      {"x": 605.3845999999999, "y": -229.8943},
      {"x": 620.7692000000002, "y": -229.5887},
      {"x": 636.1538, "y": -229.1007},
      {"x": 651.5385000000001, "y": -228.4475},
      {"x": 666.9231, "y": -227.6465},
      {"x": 682.3076999999998, "y": -226.7151},
      {"x": 697.6923000000002, "y": -225.6706},
      {"x": 713.0769, "y": -224.5303},
      {"x": 728.4614999999999, "y": -223.3116},
      {"x": 743.8462, "y": -222.0319},
      {"x": 759.2307999999998, "y": -220.7085},
      {"x": 774.6154000000001, "y": -219.3588},
      {"x": 790.0, "y": -218.0},
      {"x": 805.0, "y": -216.4279},
      {"x": 820.0, "y": -214.417},
      {"x": 835.0, "y": -212.0544},
      {"x": 850.0, "y": -209.4275},
      {"x": 865.0, "y": -206.6234},
      {"x": 880.0, "y": -203.7294},
      {"x": 895.0, "y": -200.8328},
      {"x": 910.0, "y": -198.0209},
      {"x": 925.0, "y": -195.3809},
      {"x": 940.0, "y": -193.0},
      {"x": 955.0, "y": -190.737},
      {"x": 970.0, "y": -188.4315},
      {"x": 985.0, "y": -186.1424},
      {"x": 1000.0, "y": -183.9285},
      {"x": 1015.0, "y": -181.8485},
      {"x": 1030.0, "y": -179.9612},
      {"x": 1045.0, "y": -178.3254},
      {"x": 1060.0, "y": -177.0},
      {"x": 1074.4443999999999, "y": -175.8844},
      {"x": 1088.8889, "y": -174.776},
      {"x": 1103.3332999999998, "y": -173.7078},
      {"x": 1117.7777999999998, "y": -172.7129},
      {"x": 1132.2222000000002, "y": -171.8247},
      {"x": 1146.6667000000002, "y": -171.0761},
      {"x": 1161.1111, "y": -170.5004},
      {"x": 1175.5556000000001, "y": -170.1306},
      {"x": 1190.0, "y": -170.0},
      {"x": 1205.0, "y": -170.1719},
      {"x": 1220.0, "y": -170.625},
      {"x": 1235.0, "y": -171.2656},
      {"x": 1250.0, "y": -172.0},
      {"x": 1265.0, "y": -172.7344},
      {"x": 1280.0, "y": -173.375},
      {"x": 1295.0, "y": -173.8281},
      {"x": 1310.0, "y": -174.0},
      {"x": 1325.0, "y": -173.8945},
      {"x": 1340.0, "y": -173.6116},
      {"x": 1355.0, "y": -173.2015},
      {"x": 1370.0, "y": -172.7143},
      {"x": 1385.0, "y": -172.2003},
      {"x": 1400.0, "y": -171.7098},
      {"x": 1415.0, "y": -171.293},
      {"x": 1430.0, "y": -171.0},
      {"x": 1444.2857, "y": -170.7947},
      {"x": 1458.5713999999998, "y": -170.5935},
      {"x": 1472.8571000000002, "y": -170.4065},
      {"x": 1487.1428999999998, "y": -170.2436},
      {"x": 1501.4286000000002, "y": -170.115},
      {"x": 1515.7143, "y": -170.0304},
      {"x": 1530.0, "y": -170.0},
      {"x": 1533.4119, "y": -161.746},
      {"x": 1535.4966, "y": -151.8971},
      {"x": 1536.4888, "y": -140.6691},
      {"x": 1536.6236, "y": -128.2777},
      {"x": 1536.1356, "y": -114.9386},
      {"x": 1535.2599, "y": -100.8675},
      {"x": 1534.2312000000002, "y": -86.2804},
      {"x": 1533.2845000000002, "y": -71.3928},
      {"x": 1532.6545, "y": -56.4206},
      {"x": 1532.5762, "y": -41.5794},
      {"x": 1533.2845000000002, "y": -27.0851},
      {"x": 1535.0140999999999, "y": -13.1534},
      {"x": 1538.0, "y": -0.0}
     ]
    },
    {
     "id": 3,
     "name": "",
     "type": "ground",
     "x": 4808.0,
     "y": 720.0,
     "rotation": 0,
     "visible": true,
     "width": 0,
     "height": 0,
     "polyline": [
      {"x": 0.0, "y": -0.0},
      {"x": -2.123899999999594, "y": -16.5507},
      {"x": -3.3994000000002416, "y": -32.7318},
      {"x": -3.8964999999998327, "y": -48.48},
      {"x": -3.685099999999693, "y": -63.7318},
      {"x": -2.8352999999997337, "y": -78.4238},
      {"x": -1.4169000000001688, "y": -92.4927},
      {"x": 0.5, "y": -105.875},
      {"x": 2.8455000000003565, "y": -118.5073},
      {"x": 5.549600000000282, "y": -130.3262},
      {"x": 8.542300000000068, "y": -141.2682},
      {"x": 11.753600000000006, "y": -151.27},
      {"x": 15.11369999999988, "y": -160.2682},
      {"x": 18.55249999999978, "y": -168.1993},
      {"x": 22.0, "y": -175.0},
      {"x": 36.444400000000314, "y": -175.4801},
      {"x": 50.88889999999992, "y": -176.7668},
      {"x": 65.33330000000024, "y": -178.6296},
      {"x": 79.77779999999984, "y": -180.8381},
      {"x": 94.22220000000016, "y": -183.1619},
      {"x": 108.66669999999976, "y": -185.3704},
      {"x": 123.11110000000008, "y": -187.2332},
      {"x": 137.55559999999969, "y": -188.5199},
      {"x": 152.0, "y": -189.0},
      {"x": 167.0, "y": -188.7836},
      {"x": 182.0, "y": -188.1852},
      {"x": 197.0, "y": -187.2812},
      {"x": 212.0, "y": -186.1481},
      {"x": 227.0, "y": -184.8623},
      {"x": 242.0, "y": -183.5},
      {"x": 257.0, "y": -182.1377},
      {"x": 272.0, "y": -180.8519},
      {"x": 287.0, "y": -179.7188},
      {"x": 302.0, "y": -178.8148},
      {"x": 317.0, "y": -178.2164},
      {"x": 332.0, "y": -178.0},
      {"x": 347.0, "y": -178.1181},
      {"x": 362.0, "y": -178.4444},
      {"x": 377.0, "y": -178.9375},
      {"x": 392.0, "y": -179.5556},
      {"x": 407.0, "y": -180.2569},
      {"x": 422.0, "y": -181.0},
      {"x": 437.0, "y": -181.7431},
      {"x": 452.0, "y": -182.4444},
      {"x": 467.0, "y": -183.0625},
      {"x": 482.0, "y": -183.5556},
      {"x": 497.0, "y": -183.8819},
      {"x": 512.0, "y": -184.0},
      {"x": 527.0, "y": -183.8281},
      {"x": 542.0, "y": -183.375},
      {"x": 557.0, "y": -182.7344},
      {"x": 572.0, "y": -182.0},
      {"x": 587.0, "y": -181.2656},
      {"x": 602.0, "y": -180.625},
      {"x": 617.0, "y": -180.1719},
      {"x": 632.0, "y": -180.0},
      {"x": 632.0, "y": -720.0}
     ]
    },
    {
     "id": 4,
     "name": "",
     "type": "platform",
     "x": 1180,
     "y": 410,
     "rotation": 0,
     "visible": true,
     "width": 0,
     "height": 0,
     "polyline": [
      {"x": 0, "y": 0},
      {"x": 15.833300000000008, "y": 0.5926000000000045},
      {"x": 31.66669999999999, "y": 2.074099999999987},
      {"x": 47.5, "y": 4.0},
      {"x": 63.33330000000001, "y": 5.925900000000013},
      {"x": 79.16669999999999, "y": 7.4073999999999955},
      {"x": 95.0, "y": 8.0},
      {"x": 110.83330000000001, "y": 7.4073999999999955},
      {"x": 126.66669999999999, "y": 5.925900000000013},
      {"x": 142.5, "y": 4.0},
      {"x": 158.3333, "y": 2.074099999999987},
      {"x": 174.1667, "y": 0.5926000000000045},
      {"x": 190.0, "y": -0.0}
     ]
    },
    {
     "id": 5,
     "name": "",
     "type": "platform",
     "x": 2660,
     "y": 410,
     "rotation": 0,
     "visible": true,
     "width": 0,
     "height": 0,
     "polyline": [
      {"x": 0, "y": 0},
      {"x": 15.0, "y": -0.5926000000000045},
      {"x": 30.0, "y": -2.074099999999987},
      {"x": 45.0, "y": -4.0},
      {"x": 60.0, "y": -5.925900000000013},
      {"x": 75.0, "y": -7.4073999999999955},
      {"x": 90.0, "y": -8.0},
      {"x": 105.0, "y": -7.4073999999999955},
      {"x": 120.0, "y": -5.925900000000013},
      {"x": 135.0, "y": -4.0},
      {"x": 150.0, "y": -2.074099999999987},
      {"x": 165.0, "y": -0.5926000000000045},
      {"x": 180.0, "y": -0.0}
     ]
    }
   ],
   "opacity": 1,
   "visible": true,
   "x": 0,
   "y": 0
  },
  {
   "id": 6,
   "name": "markers",
   "type": "objectgroup",
   "objects": [
    {
     "id": 6,
     "name": "spawn",
     "type": "spawn",
     "x": 120,
     "y": 560.0,
     "point": true,
     "rotation": 0,
     "visible": true,
     "width": 0,
     "height": 0
    },
    {
     "id": 7,
     "name": "goal",
     "type": "goal",
     "x": 5320,
     "y": 536.0,
     "point": true,
     "rotation": 0,
     "visible": true,
     "width": 0,
     "height": 0
    },
    {
     "id": 8,
     "name": "cable",
     "type": "cable",
     "x": 2130,
     "y": 60,
     "point": true,
     "rotation": 0,
     "visible": true,
     "width": 0,
     "height": 0,
     "properties": [
      {
       "name": "length",
       "type": "float",
       "value": 320
      }
     ]
    },
    {
     "id": 9,
     "name": "sentry",
     "type": "sentry",
     "x": 380,
     "y": 566.3239,
     "point": true,
     "rotation": 0,
     "visible": true,
     "width": 0,
     "height": 0
    },
    {
     "id": 10,
     "name": "sentry",
     "type": "sentry",
     "x": 1600,
     "y": 561.9259,
     "point": true,
     "rotation": 0,
     "visible": true,
     "width": 0,
     "height": 0
    },
    {
     "id": 11,
     "name": "sentry",
     "type": "sentry",
     "x": 3020,
     "y": 490.1974,
     "point": true,
     "rotation": 0,
     "visible": true,
     "width": 0,
     "height": 0
    },
    {
     "id": 12,
     "name": "checkpoint",
     "type": "checkpoint",
     "x": 1880,
     "y": 520.0,
     "point": true,
     "rotation": 0,
     "visible": true,
     "width": 0,
     "height": 0
    },
    {
     "id": 13,
     "name": "checkpoint",
     "type": "checkpoint",
     "x": 3760,
     "y": 546.6618,
     "point": true,
     "rotation": 0,
     "visible": true,
     "width": 0,
     "height": 0
    },
    {
     "id": 14,
     "name": "pod",
     "type": "pod",
     "x": 3890,
     "y": 525,
     "point": true,
     "rotation": 0,
     "visible": true,
     "width": 0,
     "height": 0,
     "properties": [
      {
       "name": "angle",
       "type": "float",
       "value": 44
      },
      {
       "name": "rotate",
       "type": "bool",
       "value": false
      },
      {
       "name": "speed",
       "type": "float",
       "value": 1250
      }
     ]
    },
    {
     "id": 15,
     "name": "pod",
     "type": "pod",
     "x": 4220,
     "y": 350,
     "point": true,
     "rotation": 0,
     "visible": true,
     "width": 0,
     "height": 0,
     "properties": [
      {
       "name": "angle",
       "type": "float",
       "value": 30
      },
      {
       "name": "rotate",
       "type": "bool",
       "value": true
      },
      {
       "name": "speed",
       "type": "float",
       "value": 1250
      }
     ]
    },
    {
     "id": 16,
     "name": "pod",
     "type": "pod",
     "x": 4550,
     "y": 265,
     "point": true,
     "rotation": 0,
     "visible": true,
     "width": 0,
     "height": 0,
     "properties": [
      {
       "name": "angle",
       "type": "float",
       "value": 20
      },
      {
       "name": "rotate",
       "type": "bool",
       "value": false
      },
      {
       "name": "speed",
       "type": "float",
       "value": 1050
      }
     ]
    },
    {
     "id": 17,
     "name": "shard",
     "type": "shard",
     "x": 220,
     "y": 530.0,
     "point": true,
     "rotation": 0,
     "visible": true,
     "width": 0,
     "height": 0
    },
    {
     "id": 18,
     "name": "shard",
     "type": "shard",
     "x": 540,
     "y": 512.18375,
     "point": true,
     "rotation": 0,
     "visible": true,
     "width": 0,
     "height": 0
    },
    {
     "id": 19,
     "name": "shard",
     "type": "shard",
     "x": 780,
     "y": 424.2262276648298,
     "point": true,
     "rotation": 0,
     "visible": true,
     "width": 0,
     "height": 0
    },
    {
     "id": 20,
     "name": "shard",
     "type": "shard",
     "x": 1000,
     "y": 434.24316666666664,
     "point": true,
     "rotation": 0,
     "visible": true,
     "width": 0,
     "height": 0
    },
    {
     "id": 21,
     "name": "shard",
     "type": "shard",
     "x": 1450,
     "y": 533.7144594126444,
     "point": true,
     "rotation": 0,
     "visible": true,
     "width": 0,
     "height": 0
    },
    {
     "id": 22,
     "name": "shard",
     "type": "shard",
     "x": 1810,
     "y": 483.6875267188168,
     "point": true,
     "rotation": 0,
     "visible": true,
     "width": 0,
     "height": 0
    },
    {
     "id": 23,
     "name": "shard",
     "type": "shard",
     "x": 1910,
     "y": 492.7625,
     "point": true,
     "rotation": 0,
     "visible": true,
     "width": 0,
     "height": 0
    },
    {
     "id": 24,
     "name": "shard",
     "type": "shard",
     "x": 2520,
     "y": 541.5185333333334,
     "point": true,
     "rotation": 0,
     "visible": true,
     "width": 0,
     "height": 0
    },
    {
     "id": 25,
     "name": "shard",
     "type": "shard",
     "x": 2890,
     "y": 463.24265359698734,
     "point": true,
     "rotation": 0,
     "visible": true,
     "width": 0,
     "height": 0
    },
    {
     "id": 26,
     "name": "shard",
     "type": "shard",
     "x": 3260,
     "y": 480.5725,
     "point": true,
     "rotation": 0,
     "visible": true,
     "width": 0,
     "height": 0
    },
    {
     "id": 27,
     "name": "shard",
     "type": "shard",
     "x": 3580,
     "y": 519.7271686399667,
     "point": true,
     "rotation": 0,
     "visible": true,
     "width": 0,
     "height": 0
    },
    {
     "id": 28,
     "name": "shard",
     "type": "shard",
     "x": 3820,
     "y": 518.5680666666667,
     "point": true,
     "rotation": 0,
     "visible": true,
     "width": 0,
     "height": 0
    },
    {
     "id": 29,
     "name": "shard",
     "type": "shard",
     "x": 4960,
     "y": 501.0,
     "point": true,
     "rotation": 0,
     "visible": true,
     "width": 0,
     "height": 0
    },
    {
     "id": 30,
     "name": "shard",
     "type": "shard",
     "x": 5240,
     "y": 508.5046,
     "point": true,
     "rotation": 0,
     "visible": true,
     "width": 0,
     "height": 0
    },
    {
     "id": 31,
     "name": "shard",
     "type": "shard",
     "x": 1275,
     "y": 387,
     "point": true,
     "rotation": 0,
     "visible": true,
     "width": 0,
     "height": 0
    },
    {
     "id": 32,
     "name": "shard",
     "type": "shard",
     "x": 2750,
     "y": 371,
     "point": true,
     "rotation": 0,
     "visible": true,
     "width": 0,
     "height": 0
    },
    {
     "id": 33,
     "name": "shard",
     "type": "shard",
     "x": 4040,
     "y": 410,
     "point": true,
     "rotation": 0,
     "visible": true,
     "width": 0,
     "height": 0
    },
    {
     "id": 34,
     "name": "shard",
     "type": "shard",
     "x": 4370,
     "y": 289,
     "point": true,
     "rotation": 0,
     "visible": true,
     "width": 0,
     "height": 0
    },
    {
     "id": 35,
     "name": "shard",
     "type": "shard",
     "x": 4690,
     "y": 237,
     "point": true,
     "rotation": 0,
     "visible": true,
     "width": 0,
     "height": 0
    },
    {
     "id": 36,
     "name": "shard",
     "type": "shard",
     "x": 4840,
     "y": 258,
     "point": true,
     "rotation": 0,
     "visible": true,
     "width": 0,
     "height": 0
    }
   ],
   "opacity": 1,
   "visible": true,
   "x": 0,
   "y": 0
  }
 ]
}
